cypex/img/main/caseStudies__step3.svg

<svg width="81" height="81" viewBox="0 0 81 81" fill="none" xmlns="http://www.w3.org/2000/svg">
<rect width="81" height="81" rx="24" fill="url(#paint0_linear_153_6367)"/>
<path d="M56.8335 20.0834H24.1668C21.921 20.0834 20.0835 21.9209 20.0835 24.1667V56.8334C20.0835 59.0792 21.921 60.9167 24.1668 60.9167H56.8335C59.0793 60.9167 60.9168 59.0792 60.9168 56.8334V24.1667C60.9168 21.9209 59.0793 20.0834 56.8335 20.0834ZM56.8335 56.8334H24.1668V24.1667H56.8335V56.8334ZM52.7502 28.25H42.5418C40.296 28.25 38.4585 30.0875 38.4585 32.3334V36.9884C37.2335 37.703 36.4168 38.9892 36.4168 40.5C36.4168 42.7459 38.2543 44.5834 40.5002 44.5834C42.746 44.5834 44.5835 42.7459 44.5835 40.5C44.5835 38.9892 43.7668 37.6825 42.5418 36.9884V32.3334H48.6668V48.6667H32.3335V32.3334H36.4168V28.25H28.2502V52.75H52.7502V28.25Z" fill="#0D0D0D"/>
<defs>
<linearGradient id="paint0_linear_153_6367" x1="81" y1="68.5385" x2="-4.21937" y2="62.8141" gradientUnits="userSpaceOnUse">
<stop stop-color="#E5FF5D"/>
<stop offset="1" stop-color="#5DFFFF"/>
</linearGradient>
</defs>
</svg>

<svg width="81" height="81" fill="none" xmlns="http://www.w3.org/2000/svg"><rect width="81" height="81" rx="24" fill="url(#a)"/><path d="M56.834 20.083H24.166a4.095 4.095 0 0 0-4.084 4.084v32.666a4.095 4.095 0 0 0 4.084 4.084h32.666a4.095 4.095 0 0 0 4.084-4.084V24.167a4.095 4.095 0 0 0-4.084-4.084Zm0 36.75H24.166V24.167h32.666v32.666ZM52.75 28.25H42.542a4.095 4.095 0 0 0-4.084 4.083v4.655c-1.224.715-2.041 2.001-2.041 3.512a4.095 4.095 0 0 0 4.083 4.083 4.095 4.095 0 0 0 4.084-4.083 4.02 4.02 0 0 0-2.042-3.512v-4.655h6.125v16.334H32.333V32.333h4.084V28.25H28.25v24.5h24.5v-24.5Z" fill="#0D0D0D"/><defs><linearGradient id="a" x1="81" y1="68.538" x2="-4.219" y2="62.814" gradientUnits="userSpaceOnUse"><stop stop-color="#E5FF5D"/><stop offset="1" stop-color="#5DFFFF"/></linearGradient></defs></svg>
